X: 081
T: 1.e la Marthiny
T: la Marthiny
B: Robert Landrin "Potpourri fran\,cois des contre-danse ancienne tel quil se danse chez la Reine ..." 1760 p.8 #1 dance 03 #1
S: http://memory.loc.gov/cgi-bin/query/D?musdibib:2:./temp/~ammem_EbRS:
Z: 2014 John Chambers <jc:trillian.mit.edu>
M: 2/4
L: 1/8
K: G
% - - - - - - - - - - - - - - - - - - - - - - - - -
d |\
AAAB | GGGd | AAAB | (G2D)d | AAAB | GGGd | AAAB | G3 :|
|: z |!segno!\
ccB"2f"A | ([dd2]>B)G2 | AGAB | G2D2 | ccBA | ([dd2]>B)G2 | AGAB | HG3 :|
|: g |\
f"2f"def | g3(b/>g/) | fdef | g2Gg | fdef | g3(b/>g/) | fdef | g2G2 !segno!:|
% - - - - - - - - - - - - - - - - - - - - - - - - -

%%sep 1 1 500
%%sep 1 1 500
